X: 17
T: Missa Ave Maria / Sanctus
N: Derived from Rue1004d-Missa_Ave_Maria-Sanctus.krn
C: Pierre de la Rue
%%abc-version 2.0
%%abcx-abcm2ps-target-version 5.9.1 (29 Sep 2008)
%%abc-creator hum2abc beta
%%abcx-conversion-date 2019/02/17 08:01:10
%%abc-edited-by Jesse Rodin
%%abc-edited-by Chris Gage 12-04-2012
%%abcx-initial-encoding-date 2013/05/24/
%%humdrum-veritas 2550500392
%%humdrum-veritas-data 2594577758
%%linebreak <none>
%%barnumbers 0
L: 1/4
M: 4/2
Q: 1/2=120
%%staves [1 2 3 4]
V: 1 clef=treble
V: 2 clef=treble-8
V: 3 clef=treble-8
V: 4 clef=bass
K: C
[V:1] z8 | 
[V:2] c8 | 
[V:3] z8 | 
[V:4] z8 | 
[V:1] z8 | 
[V:2] G4A4 | 
[V:3] z8 | 
[V:4] z8 | 
[V:1] c8 | 
[V:2] z2A2c3d | 
[V:3] z8 | 
[V:4] z8 | 
[V:1] G4A4 | 
[V:2] e4f4- | 
[V:3] z8 | 
[V:4] z8 | 
[V:1] z2A2c3d | 
[V:2] f4f4 | 
[V:3] z8 | 
[V:4] F,8 | 
[V:1] e4f4- | 
[V:2] e2a4d2- | 
[V:3] z8 | 
[V:4] C,4D,4 | 
[V:1] f4f4 | 
[V:2] d2a4a2- | 
[V:3] z4c4- | 
[V:4] z2D,2F,3G, | 
[V:1] e6d2- | 
[V:2] age2g2fe | 
[V:3] c4G4- | 
[V:4] A,4B,4- | 
[V:1] d2cBc3d | 
[V:2] d4z2f2 | 
[V:3] G4A4 | 
[V:4] B,4A,4- | 
[V:1] ecf4e2- | 
[V:2] e2a4g2 | 
[V:3] c3de4 | 
[V:4] A,4z4 | 
[V:1] ecd3cA2 | 
[V:2] a8 | 
[V:3] f8 | 
[V:4] z4D,4 | 
[V:1] c2B4AG | 
[V:2] g6fe | 
[V:3] e8 | 
[V:4] E,8 | 
[V:1] A2G2E2G2 | 
[V:2] d2e2c3B | 
[V:3] z4e4 | 
[V:4] F,2E,4C,2 | 
[V:1] F2E2A4 | 
[V:2] A2G2A4 | 
[V:3] d2c2d4 | 
[V:4] D,2E,2F,4 | 
[V:1] G6FE | 
[V:2] B3GG4 | 
[V:3] e6c2 | 
[V:4] E,8 | 
[V:1] F2E4D2 | 
[V:2] z8 | 
[V:3] d2e2f4 | 
[V:4] z8 | 
[V:1] E4z4 | 
[V:2] B4BABc | 
[V:3] e8 | 
[V:4] E,4E,F,G,A, | 
[V:1] z8 | 
[V:2] d2e4d2 | 
[V:3] z8 | 
[V:4] B,2C3A,B,2 | 
[V:1] B4BABc | 
[V:2] g4g4- | 
[V:3] z8 | 
[V:4] E,4E,F,G,A, | 
[V:1] d2e4d2 | 
[V:2] g2fef4 | 
[V:3] z8 | 
[V:4] B,2C4B,2 | 
[V:1] e2g3fd2 | 
[V:2] e3dB2A2 | 
[V:3] z8 | 
[V:4] C3B,G,2F,2 | 
[V:1] c2e3dB2 | 
[V:2] c3BG4 | 
[V:3] e8- | 
[V:4] A,3G,E,4 | 
[V:1] A2c3BG2- | 
[V:2] c3defga | 
[V:3] e8 | 
[V:4] z2C,3D,E,F, | 
[V:1] GABcd4 | 
[V:2] b2c'4b2 | 
[V:3] d8 | 
[V:4] G,8 | 
[V:1] e8 | 
[V:2] c'3bg4- | 
[V:3] c8- | 
[V:4] C,8 | 
[V:1] g6e2 | 
[V:2] g4z2g2 | 
[V:3] c8 | 
[V:4] C,4E,4 | 
[V:1] f6ed | 
[V:2] _b2a4gf | 
[V:3] d8 | 
[V:4] D,8 | 
[V:1] f2e2cdef | 
[V:2] a3ge2cd | 
[V:3] A8- | 
[V:4] z8 | 
[V:1] e2d3^cc2 | 
[V:2] e2f2e4 | 
[V:3] A8 | 
[V:4] z8 | 
[V:1] d4z4 | 
[V:2] d4z4 | 
[V:3] z2d4cB | 
[V:4] D,4F,2G,2 | 
[V:1] z8 | 
[V:2] z8 | 
[V:3] cdefe2d2- | 
[V:4] A,2G,F,G,F,E,D, | 
[V:1] z8 | 
[V:2] g4f3e | 
[V:3] d^c^c2d3=c | 
[V:4] E,4D,4 | 
[V:1] z4d4 | 
[V:2] fea4^g2 | 
[V:3] dcBAB4 | 
[V:4] z8 | 
[V:1] c3BcBe2- | 
[V:2] a3ge2g2 | 
[V:3] A4z4 | 
[V:4] z8 | 
[V:1] e2d2e3d | 
[V:2] f4e4 | 
[V:3] z8 | 
[V:4] D,4A,2E,2 | 
[V:1] B2d2c2B2- | 
[V:2] z2a2g2e2- | 
[V:3] z4e4- | 
[V:4] G,2F,2E,4- | 
[V:1] B2e3fg2- | 
[V:2] efg3fed | 
[V:3] e4e4 | 
[V:4] E,8- | 
[V:1] gfedc3B/A/ | 
[V:2] c2B2A2G2 | 
[V:3] e8 | 
[V:4] E,4z2E,2 | 
[V:1] G8 | 
[V:2] z2B3Gc2 | 
[V:3] B2e3fg2- | 
[V:4] E,3F,G,2C,2 | 
[V:1] z2G2A2c2- | 
[V:2] B4A2a2- | 
[V:3] gfedc3B/A/ | 
[V:4] E,4F,3G, | 
[V:1] cBA4^G2 | 
[V:2] agf2e4 | 
[V:3] c2d2B4 | 
[V:4] A,2D,2E,4 | 
[V:1] A2zAB2c2 | 
[V:2] z2e2g2a2 | 
[V:3] A4z4 | 
[V:4] z2A,2E,2A,2 | 
[V:1] d4e4 | 
[V:2] d2a4g2 | 
[V:3] z2A2BABc | 
[V:4] G,2F,2E,4 | 
[V:1] f4e2e2- | 
[V:2] f3e/d/c2A2 | 
[V:3] d4e4 | 
[V:4] D,4z4 | 
[V:1] e2d2c2B2- | 
[V:2] a4g4 | 
[V:3] f4e2e2- | 
[V:4] D,4E,3F, | 
[V:1] BcdBc2B2- | 
[V:2] zgag2fg2 | 
[V:3] e2d2c2d2- | 
[V:4] G,E,F,G,A,2G,2 | 
[V:1] B2A3^GG2 | 
[V:2] f2d2e4 | 
[V:3] dcA2B4 | 
[V:4] D,2F,2E,4 | 
[V:1] A8 ||  
[V:2] e8 ||  
[V:3] A8 ||  
[V:4] A,,8 ||  
[V:1]  [K:C] [K:clef=treble][M:2/1]A4ABcd | 
[V:2]  [K:C] [K:clef=treble-8][M:2/1]z4a4- | 
[V:3]  [K:C] [K:clef=treble-8][M:2/1]z8 | 
[V:4]  [K:C] [K:clef=bass][M:2/1]z8 | 
[V:1] e4c2f2- | 
[V:2] a4a4 | 
[V:3] z8 | 
[V:4] z8 | 
[V:1] f2e4d2 | 
[V:2] g4f4 | 
[V:3] z8 | 
[V:4] z8 | 
[V:1] c2B4e2- | 
[V:2] e8 | 
[V:3] z8 | 
[V:4] z8 | 
[V:1] e2c4f2- | 
[V:2] a8 | 
[V:3] z8 | 
[V:4] z8 | 
[V:1] f2e4d2 | 
[V:2] g4f4 | 
[V:3] z8 | 
[V:4] z8 | 
[V:1] c2B3Ee2- | 
[V:2] e6A2 | 
[V:3] z8 | 
[V:4] z8 | 
[V:1] e2d2c2A2 | 
[V:2] a8 | 
[V:3] z8 | 
[V:4] z8 | 
[V:1] B4z4 | 
[V:2] g3ef2e2- | 
[V:3] z8 | 
[V:4] z4A,4- | 
[V:1] z8 | 
[V:2] e2ABcde2 | 
[V:3] z8 | 
[V:4] A,4A,4- | 
[V:1] z8 | 
[V:2] c2f4e2- | 
[V:3] z8 | 
[V:4] A,4G,4 | 
[V:1] z8 | 
[V:2] e2d2c2B2- | 
[V:3] z8 | 
[V:4] F,4E,4- | 
[V:1] z4c4 | 
[V:2] B2e2c2f2- | 
[V:3] z8 | 
[V:4] E,4A,4 | 
[V:1] B2G2A2F2 | 
[V:2] f2e4d2 | 
[V:3] z8 | 
[V:4] G,4F,4 | 
[V:1] G2c2B2G2 | 
[V:2] c2BAB2e2 | 
[V:3] z8 | 
[V:4] E,8 | 
[V:1] A2F2G2B2- | 
[V:2] c2f2e2d2 | 
[V:3] z8 | 
[V:4] A,4G,4 | 
[V:1] B2A4^G2 | 
[V:2] dcBAB4 | 
[V:3] z8 | 
[V:4] F,4E,4 | 
[V:1] A8 | 
[V:2] A4z2e2 | 
[V:3] z8 | 
[V:4] A,8- | 
[V:1] z8 | 
[V:2] c2f4e2- | 
[V:3] z8 | 
[V:4] A,8 | 
[V:1] z2e2c2f2- | 
[V:2] e2e4d2 | 
[V:3] z8 | 
[V:4] z8 | 
[V:1] f2e4d2 | 
[V:2] c3AB2A2 | 
[V:3] z8 | 
[V:4] A,4G,2F,2 | 
[V:1] c2B4e2 | 
[V:2] e6c2 | 
[V:3] z8 | 
[V:4] E,8 | 
[V:1] c2f3edc | 
[V:2] f8 | 
[V:3] z8 | 
[V:4] z2A,2F,2_B,2- | 
[V:1] d2c2A2e2- | 
[V:2] z2f4e2- | 
[V:3] z8 | 
[V:4] B,2A,3G,G,2 | 
[V:1] e2c4f2- | 
[V:2] e2e4d2 | 
[V:3] z8 | 
[V:4] A,4F,4 | 
[V:1] f2e4d2 | 
[V:2] e2g2f4 | 
[V:3] z8 | 
[V:4] E,2C,2D,4 | 
[V:1] e2c2f3e | 
[V:2] e4z4 | 
[V:3] z8 | 
[V:4] z2A,2F,2_B,2- | 
[V:1] d2c4c2- | 
[V:2] z2e2c2f2- | 
[V:3] z8 | 
[V:4] B,2A,4A,2- | 
[V:1] cBB2c2BA | 
[V:2] fee4d2 | 
[V:3] z8 | 
[V:4] A,G,G,2A,2G,F, | 
[V:1] G8 | 
[V:2] e2dcB2e2 | 
[V:3] z8 | 
[V:4] E,8 | 
[V:1] z8 | 
[V:2] c2f4ed | 
[V:3] z8 | 
[V:4] A,2F,2_B,4 | 
[V:1] z2e2c2f2- | 
[V:2] f2e3dcB | 
[V:3] z8 | 
[V:4] A,4A,4- | 
[V:1] f2e3dB2 | 
[V:2] A2c2B4 | 
[V:3] z8 | 
[V:4] A,4G,4 | 
[V:1] A2c4BA | 
[V:2] z2e2c2f2- | 
[V:3] z8 | 
[V:4] A,8 | 
[V:1] c2G4A2- | 
[V:2] f2e3dcB | 
[V:3] z8 | 
[V:4] z2E,2C,2F,2- | 
[V:1] AGE2F3G | 
[V:2] A2g2a4 | 
[V:3] z8 | 
[V:4] F,2E,3D,D,2 | 
[V:1] E4z2d2 | 
[V:2] g2e2f3g | 
[V:3] z8 | 
[V:4] E,2C,2D,4 | 
[V:1] e4d3B | 
[V:2] e2a2f2_b2- | 
[V:3] z8 | 
[V:4] C,4z2G,2 | 
[V:1] c4B2e2 | 
[V:2] b2a4g2 | 
[V:3] z8 | 
[V:4] A,4G,2E,2 | 
[V:1] c2f4e2- | 
[V:2] a4g2e2 | 
[V:3] z8 | 
[V:4] F,2D,2E,2C,2 | 
[V:1] e2d2c2B2 | 
[V:2] f4e4- | 
[V:3] z8 | 
[V:4] D,4z2E,2 | 
[V:1] c3BA2GF | 
[V:2] e2c2d2e2 | 
[V:3] z8 | 
[V:4] C,2F,4E,2- | 
[V:1] E2A4G2 | 
[V:2] c2d2B4 | 
[V:3] z8 | 
[V:4] E,2D,2E,4 | 
[V:1] A2B2c2dc | 
[V:2] A2e2c2f2- | 
[V:3] z8 | 
[V:4] z2G,2A,2B,2 | 
[V:1] BAA4^G2 | 
[V:2] fee4d2 | 
[V:3] z8 | 
[V:4] C3DB,4 | 
[V:1] A8 ||  
[V:2] e8 ||  
[V:3] z8 ||  
[V:4] A,8 ||  
[V:1]  [K:C] [K:clef=treble][M:3/1]z12 | 
[V:2]  [K:C] [K:clef=treble-8][M:3/1]c8G4 | 
[V:3]  [K:C] [K:clef=treble-8][M:3/1]z12 | 
[V:4]  [K:C] [K:clef=bass][M:3/1]z12 | 
[V:1] c8G4 | 
[V:2] A2B2c2d2e4 | 
[V:3] z12 | 
[V:4] z12 | 
[V:1] A2B2c2d2e4 | 
[V:2] f8e4 | 
[V:3] z12 | 
[V:4] F,8C,4 | 
[V:1] f8e4 | 
[V:2] d6c2c4 | 
[V:3] z12 | 
[V:4] D,2E,2F,2G,2A,4 | 
[V:1] d4f6e2 | 
[V:2] d8e4- | 
[V:3] z12 | 
[V:4] _B,8A,4- | 
[V:1] e8d4 | 
[V:2] e4f8 | 
[V:3] z12 | 
[V:4] A,4D,8 | 
[V:1] e12 | 
[V:2] e8z4 | 
[V:3] c8G4 | 
[V:4] A,6G,2E,4 | 
[V:1] z12 | 
[V:2] a8g2f2 | 
[V:3] A2B2c2d2e4- | 
[V:4] F,6E,2C,4 | 
[V:1] e8d4 | 
[V:2] e2d2c6B2 | 
[V:3] e4f6e2 | 
[V:4] E,4A,6G,2 | 
[V:1] c4d8 | 
[V:2] G4A6B2 | 
[V:3] e8d4 | 
[V:4] E,4F,8 | 
[V:1] G6A2B4 | 
[V:2] c4B8 | 
[V:3] e4e4d4 | 
[V:4] E,6F,2G,4 | 
[V:1] c6B2B4 | 
[V:2] e4g8 | 
[V:3] c4d6e2 | 
[V:4] A,4G,8 | 
[V:1] c4B6A2 | 
[V:2] g6f2e2d2 | 
[V:3] e12 | 
[V:4] C,2D,2E,2F,2G,4 | 
[V:1] A6^G2G4 | 
[V:2] c4B8 | 
[V:3] z12 | 
[V:4] A,4E,8 | 
[V:1] A4c2B2B2A2 | 
[V:2] c4g6f2 | 
[V:3] e8d4 | 
[V:4] A,4E,4G,4 | 
[V:1] c4B6A2 | 
[V:2] f2e2g4e4 | 
[V:3] c4d6c2 | 
[V:4] A,4G,4A,4 | 
[V:1] A8^G4 | 
[V:2] d4e8 | 
[V:3] A4B8 | 
[V:4] F,4E,8 | 
[V:1] A4c6d2 | 
[V:2] c6B2A4 | 
[V:3] A12 | 
[V:4] z4A,4F,4 | 
[V:1] e2f2g4e4 | 
[V:2] B4G6A2 | 
[V:3] z12 | 
[V:4] G,4E,8 | 
[V:1] f6e2e2d2 | 
[V:2] A4a4b4 | 
[V:3] d8d4- | 
[V:4] D,8G,4 | 
[V:1] d8^c4 | 
[V:2] g4a8 | 
[V:3] d4e8 | 
[V:4] B,4A,8 | 
[V:1] d8B4 | 
[V:2] a4g2f2g4 | 
[V:3] d8d4 | 
[V:4] D,4G,2A,2B,4 | 
[V:1] A4c6B2 | 
[V:2] e4f6g2 | 
[V:3] e4c6d2 | 
[V:4] C4A,6G,2 | 
[V:1] B4d4c4 | 
[V:2] g8z4 | 
[V:3] d8z4 | 
[V:4] G,8z4 | 
[V:1] B2c2d2B2c4 | 
[V:2] g6f2f4 | 
[V:3] d6c2c4 | 
[V:4] G,4B,4A,4 | 
[V:1] B4d4c4 | 
[V:2] g6d2e2f2 | 
[V:3] d4B4c4 | 
[V:4] G,6B,2A,4 | 
[V:1] B4A2A4G2 | 
[V:2] g4e8 | 
[V:3] d4c2A2B4 | 
[V:4] G,4A,4E,4 | 
[V:1] A4e4d2B2 | 
[V:2] f4e2c2d4 | 
[V:3] A4z4z4 | 
[V:4] A,4G,2E,2F,4 | 
[V:1] c4B6A2 | 
[V:2] e4g6f2 | 
[V:3] e8d2B2 | 
[V:4] E,8E,4- | 
[V:1] A6^G2G4 | 
[V:2] e12 | 
[V:3] c4B8 | 
[V:4] E,4E,8 | 
[V:1] A12 ||  
[V:2] e12 ||  
[V:3] A12 ||  
[V:4] A,,12 ||  
[V:1]  [K:C] [K:clef=treble][M:2/1]z8 | 
[V:2]  [K:C] [K:clef=treble-8][M:2/1]e6c2 | 
[V:3]  [K:C] [K:clef=treble-8][M:2/1]z8 | 
[V:4]  [K:C] [K:clef=bass][M:2/1]z4A,4- | 
[V:1] z8 | 
[V:2] e2f2g2fe | 
[V:3] z8 | 
[V:4] A,4_B,4 | 
[V:1] z8 | 
[V:2] d4c4 | 
[V:3] z8 | 
[V:4] _B,4A,4- | 
[V:1] z8 | 
[V:2] z2f4ed | 
[V:3] z8 | 
[V:4] A,2F,2A,2_B,2 | 
[V:1] z8 | 
[V:2] e2c2d2e2 | 
[V:3] z8 | 
[V:4] C2_B,A,G,4 | 
[V:1] z8 | 
[V:2] f2edc4 | 
[V:3] z8 | 
[V:4] F,4z2A,2- | 
[V:1] z8 | 
[V:2] z2e4dc | 
[V:3] z8 | 
[V:4] A,2G,F,G,2E,2 | 
[V:1] z8 | 
[V:2] d2B2c2d2 | 
[V:3] z8 | 
[V:4] F,2G,2A,2G,F, | 
[V:1] z8 | 
[V:2] e2dcB2e2- | 
[V:3] z8 | 
[V:4] E,2A,4G,F, | 
[V:1] z8 | 
[V:2] e2dcd2B2 | 
[V:3] z8 | 
[V:4] G,2E,2F,2G,2 | 
[V:1] e8 | 
[V:2] c2d2e2dc | 
[V:3] z8 | 
[V:4] A,2G,F,E,4 | 
[V:1] f4f4 | 
[V:2] B2c4B2 | 
[V:3] z8 | 
[V:4] D,3C,D,4 | 
[V:1] e6c2 | 
[V:2] c8- | 
[V:3] z8 | 
[V:4] C,8- | 
[V:1] e2f2g2fe | 
[V:2] c8 | 
[V:3] z8 | 
[V:4] C,8 | 
[V:1] d4c4 | 
[V:2] z2f4e2- | 
[V:3] z8 | 
[V:4] z8 | 
[V:1] z2f4d2 | 
[V:2] e2dcd2B2 | 
[V:3] z8 | 
[V:4] z8 | 
[V:1] e2c2d2e2 | 
[V:2] c2f4e2 | 
[V:3] z8 | 
[V:4] z8 | 
[V:1] f2edc2f2- | 
[V:2] d2cBA4 | 
[V:3] z8 | 
[V:4] F,8 | 
[V:1] f2e2d2cB | 
[V:2] z4d4 | 
[V:3] z8 | 
[V:4] G,4G,4 | 
[V:1] A4z4 | 
[V:2] f6f2 | 
[V:3] z8 | 
[V:4] F,3G,A,2_B,2 | 
[V:1] d4f4- | 
[V:2] g4a4- | 
[V:3] z8 | 
[V:4] G,4F,4- | 
[V:1] f2f2e4 | 
[V:2] a4g2c2 | 
[V:3] z8 | 
[V:4] F,4G,2A,2 | 
[V:1] d3cABc2 | 
[V:2] f3gagef | 
[V:3] z8 | 
[V:4] _B,3A,F,G,A,2 | 
[V:1] BAd4^c2 | 
[V:2] gfede4 | 
[V:3] z8 | 
[V:4] G,2B,2A,4 | 
[V:1] d4z2A2 | 
[V:2] d8 | 
[V:3] z8 | 
[V:4] z2D,3E,F,2 | 
[V:1] B2G2A2B2 | 
[V:2] z8 | 
[V:3] z8 | 
[V:4] G,2E,2F,2G,2 | 
[V:1] c2BAG4 | 
[V:2] z2A2B2G2 | 
[V:3] z8 | 
[V:4] A,2G,F,E,2G,2 | 
[V:1] z8 | 
[V:2] A2B2c2d2 | 
[V:3] z8 | 
[V:4] F,8 | 
[V:1] z4z2B2 | 
[V:2] e2dcB4 | 
[V:3] z8 | 
[V:4] E,2A,4G,2 | 
[V:1] c2A2B2c2 | 
[V:2] A4z2e2 | 
[V:3] z8 | 
[V:4] A,2F,2G,2A,2 | 
[V:1] d2cBA4 | 
[V:2] f6d2 | 
[V:3] z8 | 
[V:4] D,8 | 
[V:1] z8 | 
[V:2] e2f2g2fe | 
[V:3] z8 | 
[V:4] z2A,2B,2C2 | 
[V:1] z2A2B2G2 | 
[V:2] d2f2g2e2 | 
[V:3] z8 | 
[V:4] D4G,4 | 
[V:1] A2B2c2d2 | 
[V:2] f2g2a2gf | 
[V:3] z8 | 
[V:4] z8 | 
[V:1] e2dcB2e2 | 
[V:2] e8 | 
[V:3] z8 | 
[V:4] z4z2A,2 | 
[V:1] d2e4d2 | 
[V:2] g4f4 | 
[V:3] z8 | 
[V:4] B,2G,2A,2B,2 | 
[V:1] e8 | 
[V:2] e4z2e2 | 
[V:3] z8 | 
[V:4] C2B,A,G,2A,2 | 
[V:1] z4z2e2 | 
[V:2] f2d2e2g2 | 
[V:3] z8 | 
[V:4] F,4E,4 | 
[V:1] f2d2e2c2 | 
[V:2] f4e4 | 
[V:3] z8 | 
[V:4] z4z2A,2 | 
[V:1] d2e2f3e | 
[V:2] z2g2a2f2 | 
[V:3] z8 | 
[V:4] B,2C2F,4 | 
[V:1] e2c2d4 | 
[V:2] g2e2f2g2 | 
[V:3] z8 | 
[V:4] C4B,4 | 
[V:1] c4z2e2 | 
[V:2] a2gfe2g2 | 
[V:3] z8 | 
[V:4] A,4z2C2 | 
[V:1] f2d2e2c2 | 
[V:2] f4e4 | 
[V:3] z8 | 
[V:4] D2B,2C2A,2 | 
[V:1] d2e2f3e | 
[V:2] z2g2a2f2 | 
[V:3] z8 | 
[V:4] G,4F,4 | 
[V:1] e2c2d4 | 
[V:2] g2e2f2g2 | 
[V:3] z8 | 
[V:4] C4B,4 | 
[V:1] c8- | 
[V:2] a8 | 
[V:3] z8 | 
[V:4] A,4C4- | 
[V:1] c8- | 
[V:2] g2e2f4 | 
[V:3] z8 | 
[V:4] C4F,4 | 
[V:1] c8 ||  
[V:2] e8 ||  
[V:3] z8 ||  
[V:4] C,8 ||  



